!!!!SEGMENT: pl-sa--134-a-iii-34--003_graun-carl-heinrich--beata-salomea.krn
!!!cenid: 17xx:616
!!!COM: Graun, Carl Heinrich
!!!COM-rismid: pe30001351
!!!CDT: 1704/05/07-1759/08/08
!!!CNT: German
!!!OTL: Beata Salomea
!!!PDT:
!!!AGN: Sacred
!!!SMS-siglum: PL-SA
!!!SMS-shelfmark: 134/A III 34
!!!SMS-shelfwork: 003 W
!!!SMS-variant:
!!!SMS-altvar:
!!!NIFC-rismid: 1001041282
!!!URL-scan: http://bc.bdsandomierz.pl/dlibra/publication/1491/edition/1459/content
!!!ONB-nifc:
**kern	**fba	**kern	**dynam	**kern	**dynam	**kern	**dynam	**kern	**text
*part5	*	*part4	*part4	*part3	*part3	*part2	*part2	*part1	*part1
*group2	*	*group2	*	*group2	*	*group2	*	*group1	*
*staff5	*	*staff4	*	*staff3	*	*staff2	*	*staff1	*staff1
*I"Baſso	*	*I"Viola	*	*I"Violino 2do.	*	*I"Violino 1mo	*	*I"	*
*I'b.c.	*	*I'va	*	*I'vl 2	*	*I'vl 1	*	*I'	*
*clefF4	*	*clefC3	*	*clefG2	*	*clefG2	*	*clefC1	*
*k[b-e-a-]	*	*k[a-e-b-]	*	*k[e-b-a-]	*	*k[e-b-a-]	*	*k[b-a-e-]	*
*c:	*	*c:	*	*c:	*	*c:	*	*c:	*
*M3/4	*	*M3/4	*	*M3/4	*	*M3/4	*	*M3/4	*
=1	=1	=1	=1	=1	=1	=1	=1	=1	=1
!	!	!LO:TX:a:t=problem:brak oznaczenia tempa	!	!LO:TX:a:t=Allegro	!	!LO:TX:a:t=Allegro	!	!LO:TX:a:t=problem:brak oznaczenia tempa	!
!	!	!LO:TX:a:t=Aria 3tia	!	!LO:TX:a:t=Aria 3tia	!	!LO:TX:a:t=Aria 3tia	!	!LO:TX:b:t=Aria 3tia	!
!	!	!	!	!	!	!	!	!LO:TX:a:t=16	!
!	!	!	!	!	!	!	!	!LO:TX:a:t=problem:brak nazwy partii	!
!	!	!	!	!	!	!	!	!LO:N:vis=00	!
4C/	.	4c\	.	4cc\	.	4cc\	.	0.r	.
4r	.	4r	.	8ee-\L	.	8ee-\L	.	.	.
.	.	.	.	8cc\	.	8cc\	.	.	.
4r	.	4r	.	8dd\	.	8dd\	.	.	.
.	.	.	.	8bn\J	.	8bn\J	.	.	.
=2	=2	=2	=2	=2	=2	=2	=2	=2	=2
4c\	.	4c\	.	4cc\	.	4cc\	.	.	.
8e-\L	.	8e-\L	.	4g/	.	4g/	.	.	.
8c\	.	8c\	.	.	.	.	.	.	.
8d\	.	8d\	.	8r	.	8r	.	.	.
8Bn\J	.	8Bn\J	.	8ff\	.	8ff\	.	.	.
=3	=3	=3	=3	=3	=3	=3	=3	=3	=3
*2\right	*	*	*	*	*	*	*	*	*
2c\	4	4.c\	.	4ff\	.	(4ff\	.	.	.
.	3	.	.	8ee-\L	.	8ee-\L)	.	.	.
.	.	8f\L	.	8dd\	.	8dd\	.	.	.
4G\	.	8e-\	.	8cc\	.	8cc\	.	.	.
.	.	8d\J	.	8bn\J	.	8bn\J	.	.	.
=4	=4	=4	=4	=4	=4	=4	=4	=4	=4
8C\L	.	8e-\L	.	8cc/L	.	8cc/L	.	.	.
!LO:TX:a:t=unisono	!	!	!	!	!	!	!	!	!
8A-\	.	8a-\	.	8a-/	.	8a-/	.	.	.
8G\	.	8g\	.	8g/	.	8g/	.	.	.
8F\	.	8f\	.	8f/	.	8f/	.	.	.
8E-\	.	8e-\	.	8e-/	.	8e-/J	.	.	.
!	!	!	!	!LO:TX:a:t=problem:sic!:s=8d	!	!LO:TX:a:t=problem:brak dźwięku w źródle	!	!	!
8D\J	.	8d\J	.	8d/J	.	8ryy	.	.	.
=5	=5	=5	=5	=5	=5	=5	=5	=5	=5
!	!	!	!	!LO:TX:a:t=problem:mixed beam	!	!LO:TX:a:t=problem:mixed beam	!	!LO:N:vis=00	!
4C/	.	4c/	.	8c/L	.	8c/L	.	0.r	.
.	.	.	.	8cc\	.	8cc\	.	.	.
!LO:TX:a:t=problem:zapis nieczytelny	!	!	!	!	!	!	!	!	!
4ryy	.	4r	.	8ee-\	.	8ee-\	.	.	.
.	.	.	.	8cc\	.	8cc\	.	.	.
4ryy	.	4r	.	8gg\	.	8gg\	.	.	.
!	!	!	!	!	!	!LO:TX:A:t=problem:custos a-	!	!	!
.	.	.	.	8b-\J	.	8b-\J	.	.	.
!	!	!	!	!LO:LB:g=original	!	!LO:LB:g=original	!	!	!
=6	=6	=6	=6	=6	=6	=6	=6	=6	=6
8r	.	8r	.	8a-/L	.	8a-/L	.	.	.
8F\L	.	8f\L	.	8f/	.	8f/	.	.	.
8A-\	.	8a-\	.	8a-/	.	8a-/	.	.	.
8F\J	.	8f\	.	8f/	.	8f/	.	.	.
8C/	.	8cc\	.	8cc/	.	8cc/	.	.	.
!LO:TX:a:t=problem:zapis nieczytelny	!	!	!	!	!	!	!	!	!
8ryy	.	8e-\J	.	8e-/J	.	8e-/J	.	.	.
!LO:LB:g=original	!	!LO:LB:g=original	!	!	!	!	!	!	!
=7	=7	=7	=7	=7	=7	=7	=7	=7	=7
!	!	!	!	!LO:TX:a:t=problem:mixed beam	!	!LO:TX:a:t=problem:mixed beam	!	!	!
4D\	.	4d\	.	8d/L	.	8d/L	.	.	.
.	.	.	.	8b-\	.	8b-\	.	.	.
4r	.	4r	.	8dd\	.	8dd\	.	.	.
.	.	.	.	8b-\	.	8b-\	.	.	.
4r	.	4r	.	8ff\	.	8ff\	.	.	.
.	.	.	.	8a-\J	.	8a-\J	.	.	.
=8	=8	=8	=8	=8	=8	=8	=8	=8	=8
8r	.	8r	.	8g/L	.	8g/L	.	.	.
8E-\L	.	8e-\L	.	8e-/	.	8e-/	.	.	.
8G\	.	8g\	.	8g/	.	8g/	.	.	.
8E-\	.	8e-\	.	8e-/	.	8e-/	.	.	.
8B-\	.	8b-\	.	8b-/	.	8b-/	.	.	.
8D\J	.	8d\J	.	8d/J	.	8d/J	.	.	.
=9	=9	=9	=9	=9	=9	=9	=9	=9	=9
!	!	!	!	!	!	!	!	!LO:N:vis=00	!
8C\L	.	8c\L	.	8c/L	.	8c/L	.	0.r	.
8D\	.	8d\	.	8d/	.	8d/	.	.	.
8F\	.	8f\	.	8f/	.	8f/	.	.	.
8D\	.	8d\	.	8d/	.	8d/	.	.	.
8A-\	.	8a-\	.	8a-/	.	8a-/	.	.	.
8C\J	.	8c\J	.	8c/J	.	8c/J	.	.	.
=10	=10	=10	=10	=10	=10	=10	=10	=10	=10
!	!	!	!	!	!	!LO:TX:a:t=problem:mixed beam	!	!	!
4BBn/	.	4Bn/	.	4Bn/	.	16g/LL	.	.	.
.	.	.	.	.	.	16gg\	.	.	.
.	.	.	.	.	.	16g/	.	.	.
.	.	.	.	.	.	16gg\JJ	.	.	.
*	*	*	*	*2\right	*	*	*	*	*
!	!	!	!	!	!	!LO:TX:a:t=problem:mixed beam	!	!	!
8r	.	8r	.	2bnt\	.	16g/LL	.	.	.
.	.	.	.	.	.	16gg\	.	.	.
8G\L	.	8d\L	.	.	.	16g/	.	.	.
.	.	.	.	.	.	16gg\JJ	.	.	.
!	!	!	!	!	!	!LO:TX:a:t=problem:mixed beam	!	!	!
8F\	.	8d\	.	.	.	16g/LL	.	.	.
.	.	.	.	.	.	16gg\	.	.	.
8G\J	.	8d\J	.	.	.	16g/	.	.	.
.	.	.	.	.	.	16gg\JJ	.	.	.
=11	=11	=11	=11	=11	=11	=11	=11	=11	=11
!	!	!	!	!	!	!LO:TX:a:t=problem:mixed beam	!	!	!
4E-\	6	4e-\	.	4cc\	.	16g/LL	.	.	.
.	.	.	.	.	.	16gg\	.	.	.
.	.	.	.	.	.	16g/	.	.	.
.	.	.	.	.	.	16gg\JJ	.	.	.
!	!	!	!	!	!	!LO:TX:a:t=problem:mixed beam	!	!	!
8r	.	8r	.	2ccT\	.	16g/LL	.	.	.
.	.	.	.	.	.	16gg\	.	.	.
8E-\L	.	8g\L	.	.	.	16g/	.	.	.
.	.	.	.	.	.	16gg\JJ	.	.	.
!	!	!	!	!	!	!LO:LB:g=original	!	!	!
!	!	!	!	!	!	!LO:TX:a:t=problem:mixed beam	!	!	!
8D\	.	8f\	.	.	.	16g/LL	.	.	.
.	.	.	.	.	.	16gg\	.	.	.
8C\J	.	8e-\J	.	.	.	16g/	.	.	.
.	.	.	.	.	.	16gg\JJ	.	.	.
=12	=12	=12	=12	=12	=12	=12	=12	=12	=12
!	!	!	!	!	!	!LO:TX:a:t=problem:mixed beam	!	!	!
4BBn/	.	4d\	.	4dd\	.	16g/LL	.	.	.
.	.	.	.	.	.	16gg\	.	.	.
.	.	.	.	.	.	16g/	.	.	.
.	.	.	.	.	.	16gg\JJ	.	.	.
!	!	!	!	!	!	!LO:TX:a:t=problem:mixed beam	!	!	!
8r	.	8r	.	2ddt\	.	16g/LL	.	.	.
.	.	.	.	.	.	16gg\	.	.	.
8BB/L	.	8d\L	.	.	.	16g/	.	.	.
.	.	.	.	.	.	16gg\JJ	.	.	.
!	!	!	!	!	!	!LO:TX:a:t=problem:mixed beam	!	!	!
8AAn/	.	8c\	.	.	.	16g/LL	.	.	.
.	.	.	.	.	.	16gg\	.	.	.
8GG/J	.	8Bn\J	.	.	.	16g/	.	.	.
.	.	.	.	.	.	16gg\JJ	.	.	.
=13	=13	=13	=13	=13	=13	=13	=13	=13	=13
!	!	!	!	!	!	!	!	!LO:N:vis=00	!
4C/	.	4c\	.	16ee-\LL	.	16gg\LL	.	0.r	.
.	.	.	.	16ff\	.	16ff\	.	.	.
.	.	.	.	16ee-\	.	16ee-\	.	.	.
.	.	.	.	16dd\JJ	.	16dd\JJ	.	.	.
!	!	!	!	!LO:LB:g=original	!	!	!	!	!
4E-\	6	4G/	.	16cc\LL	.	16cc/LL	.	.	.
.	.	.	.	16b-\	.	16b-/	.	.	.
.	.	.	.	16a-X\	.	16a-X/	.	.	.
.	.	.	.	16g\JJ	.	16g/JJ	.	.	.
4F\	.	4A-/	.	16f/LL	.	16f/LL	.	.	.
.	.	.	.	16e-/	.	16e-/	.	.	.
.	.	.	.	16d/	.	16d/	.	.	.
.	.	.	.	16c/JJ	.	16c/JJ	.	.	.
=14	=14	=14	=14	=14	=14	=14	=14	=14	=14
4G\	n	4G/	.	4Bn/	.	4Bn/	.	.	.
!	!	!	!	!	!	!LO:N:vis=8	!	!	!
8.r	.	8.r	.	8.r	.	8.r	.	.	.
!LO:LB:g=original	!	!	!	!	!	!	!	!	!
16Bn\	7 5	16d\	.	16ff\	.	16aa-\	.	.	.
4c\	.	4e-\	.	4ee-\	.	4gg\	.	.	.
!	!	!LO:LB:g=original	!	!	!	!	!	!	!
=15	=15	=15	=15	=15	=15	=15	=15	=15	=15
8.r	.	8.r	.	8.r	.	8.r	.	.	.
16F\	6	16a-\	.	16dd\	.	16ff\	.	.	.
4G\	6 4	4g\	.	4cc\	.	4ee-\	.	.	.
4GG/	5 n	4G/	.	4bnt\	.	4ddt\	.	.	.
=16	=16	=16	=16	=16	=16	=16	=16	=16	=16
!LO:TX:a:t=unisono	!	!	!	!	!	!	!	!	!
8C\L	.	8c\L	.	8cc\L	.	8cc/L	.	.	.
8A-\	.	8a-\	.	8a-\	.	8a-/	.	.	.
8G\	.	8g\	.	8g\	.	8g/	.	.	.
8F\	.	8f\	.	8f\	.	8f/	.	.	.
8E-\	.	8e-\	.	8e-\	.	8e-/	.	.	.
!	!	!	!	!LO:TX:a:t=Volti Subito	!	!	!	!	!
8D\J	.	8d\J	.	8d\J	.	8d/J	.	.	.
!	!	!	!	!LO:PB:g=original	!	!LO:LB:g=original	!	!	!
=17	=17	=17	=17	=17	=17	=17	=17	=17	=17
!	!	!	!	!LO:TX:b:i:t=Vox	!LO:DY:a	!LO:TX:b:i:t=Vox	!LO:DY:a	!	!
!	!	!LO:TX:a:t=[segno]	!	!LO:TX:a:t=[segno]	!LO:DY:t=piano	!LO:TX:a:t=[segno]	!	!	!
4C/	.	4c\	.	4c/	p	4c/	p	4cc\	Be-
4r	.	4r	.	8ee-\L	.	8ee-\L	.	8ee-\	-a-
.	.	.	.	8cc\	.	8cc\	.	8cc\	-ta
4r	.	4r	.	8dd\	.	8dd\	.	8dd\	Sa-
.	.	.	.	8bn\J	.	8bn\J	.	8bn\	-lo-
=18	=18	=18	=18	=18	=18	=18	=18	=18	=18
!	!	!	!LO:DY:t=piano	!	!	!	!	!	!
!	!	!	!LO:DY:a	!	!	!	!	!	!
4c\	.	4c\	p	4cc\	.	4cc\	.	4cc\	-me-
8e-\L	.	8e-\L	.	4g/	.	4g/	.	4g/	-a
8c\	.	8c\	.	.	.	.	.	.	.
8d\	.	8d\	.	8r	.	8r	.	8r	.
8Bn\J	.	8Bn\J	.	8dd\	.	8ff\	.	8ff\	ad
=19	=19	=19	=19	=19	=19	=19	=19	=19	=19
*	*	*2\right	*	*	*	*	*	*	*
2c\	4	2c\	.	(4dd\	.	(4ff\	.	(4ff\	es-
!	!	!	!	!LO:TX:a:t=problem:mixed beam	!	!	!	!	!
.	3	.	.	8cc\L)	.	8ee-\L)	.	8ee-\)	-to
.	.	.	.	8f/	.	8dd\	.	8dd\	Pa-
4G\	.	4G/	.	8e-/	.	8cc\	.	8cc\	-tro-
.	.	.	.	8d/J	.	8bn\J	.	8bn\	-na
!	!	!	!	!	!	!	!	!LO:LB:g=original	!
=20	=20	=20	=20	=20	=20	=20	=20	=20	=20
8C\L	.	8C/	.	8e-/	.	8cc\	.	4cc\	me-
8A-\	.	8a-\L	.	8a-/L	.	8a-/L	.	.	.
8G\	.	8g\	.	8g/	.	8g/	.	4g/	-a
8F\	.	8f\	.	8f/	.	8f/	.	.	.
8E-\	.	8e-\	.	8e-/	.	8e-/	.	4r	.
8D\J	.	8d\J	.	8d/J	.	8d/J	.	.	.
=21	=21	=21	=21	=21	=21	=21	=21	=21	=21
4C/	.	4c\	.	8c/	.	8c/	.	4ee-\	es-
.	.	.	.	8ee-\L	.	8ee-\L	.	.	.
4r	.	4r	.	8dd\	.	8dd\	.	8dd\	-to
.	.	.	.	8cc\	.	8cc\	.	8cc\	Pa-
4D\	.	4d\	.	8b-\	.	8b-\	.	8b-\	-tro-
.	.	.	.	8a-\J	.	8a-\J	.	8a-\	-na
!LO:LB:g=original	!	!	!	!	!	!	!	!	!
=22	=22	=22	=22	=22	=22	=22	=22	=22	=22
8E-\L	.	8E-/L	.	(8g/L	.	(8g/L	.	8g\L	me-
!	!	!LO:TX:a:t=problem:mixed beam	!	!	!	!	!	!	!
8e-\	.	8e-\	.	8a-/J)	.	8a-/J)	.	8a-\J	.
8d\	.	8d\	.	4b-\	.	4b-\	.	4b-\	-a
8c\	.	8c\	.	.	.	.	.	.	.
8B-\	.	8B-\	.	4r	.	4r	.	8r	.
8A-\J	.	8A-\J	.	.	.	.	.	8b-\	ad
=23	=23	=23	=23	=23	=23	=23	=23	=23	=23
*	*	*	*	*	*	*2\right	*	*	*
!	!	!	!LO:DY:t=forte	!	!LO:DY:t=forte	!	!	!	!
!	!	!	!LO:DY:a	!	!LO:DY:a	!	!	!	!
2.G\	.	2.e-\	f	2.b-\	f	2.dd-X\	.	4.dd-X\	es-
.	.	.	.	.	.	.	.	8e-/	-to
.	.	.	.	.	.	.	.	8e-/	Pa-
.	.	.	.	.	.	.	.	8dd-X\	-tro-
!	!	!LO:LB:g=original	!	!	!	!LO:LB:g=original	!	!	!
=24	=24	=24	=24	=24	=24	=24	=24	=24	=24
4A-\	.	4e-\	.	8r	.	8r	.	4cc\	-na
!	!	!	!	!	!	!	!LO:DY:a	!	!
.	.	.	.	8cc\L	.	8cc\L	p	.	.
4r	.	4r	.	8b-\	.	8b-\	.	4r	.
.	.	.	.	8a-\	.	8a-\	.	.	.
4r	.	4r	.	8g\	.	8g\	.	8r	.
.	.	.	.	8f\J	.	8f\J	.	8ee-\	in
!	!	!	!	!LO:LB:g=original	!	!	!	!	!
=25	=25	=25	=25	=25	=25	=25	=25	=25	=25
!	!	!	!	!	!	!	!LO:DY:t=fo	!	!
!	!	!	!	!	!	!	!LO:DY:a	!	!
2.An\	.	2.f\	.	2.cc\	.	2.ee-\	f	4.ee-\	le-
.	.	.	.	.	.	.	.	8f/	-va-
.	.	.	.	.	.	.	.	8f/	-men
.	.	.	.	.	.	.	.	8ee-\	pro-
!	!	!	!	!	!	!	!	!LO:LB:g=original	!
=26	=26	=26	=26	=26	=26	=26	=26	=26	=26
4B-\	.	4f\	.	8r	.	8r	.	4dd\	-na
.	.	.	.	8dd\L	.	8dd\L	.	.	.
4r	.	4r	.	8ff\	.	8ff\	.	4r	.
!	!	!	!	!	!	!	!LO:DY:a	!	!
.	.	.	.	8dd\	.	8dd\	p	.	.
4r	.	4r	.	8cc\	.	8cc\	.	4r	.
.	.	.	.	8b-\J	.	8b-\J	.	.	.
=27	=27	=27	=27	=27	=27	=27	=27	=27	=27
4e-\	.	4ee-\	.	4ee-\	.	4ee-\	.	4ee-\	ca-
8E-\L	.	8e-\L	.	8e-/L	.	8e-/L	.	8e-/	-tu-
8F\	.	8f\	.	8f/	.	8f/	.	8f/	-i
8G\	.	8g\	.	8g/	.	8g/	.	8g\	pi-
8A-\J	.	8a-\J	.	8a-/J	.	8a-/J	.	8a-\	-a
=28	=28	=28	=28	=28	=28	=28	=28	=28	=28
4B-\	.	16b-\LL	.	16b-\LL	.	16b-\LL	.	(4b-\	ma-
.	.	16b-\	.	16b-\	.	16b-\	.	.	.
.	.	16b-\	.	16b-\	.	16b-\	.	.	.
.	.	16b-\JJ	.	16b-\JJ	.	16b-\JJ	.	.	.
4c\	.	16cc\LL	.	16cc\LL	.	16cc\LL	.	4cc\)	.
.	.	16cc\	.	16cc\	.	16cc\	.	.	.
.	.	16cc\	.	16cc\	.	16cc\	.	.	.
.	.	16cc\JJ	.	16cc\JJ	.	16cc\JJ	.	.	.
4d\	.	16dd\LL	.	16dd\LL	.	16dd\LL	.	4dd\	-ter
.	.	16dd\	.	16dd\	.	16dd\	.	.	.
.	.	16dd\	.	16dd\	.	16dd\	.	.	.
.	.	16dd\JJ	.	16dd\JJ	.	16dd\JJ	.	.	.
=29	=29	=29	=29	=29	=29	=29	=29	=29	=29
4e-\	.	16ee-\LL	.	16ee-\LL	.	16ee-\LL	.	(4ee-\	Sa-
.	.	16ee-\	.	16ee-\	.	16ee-\	.	.	.
.	.	16ee-\	.	16ee-\	.	16ee-\	.	.	.
.	.	16ee-\JJ	.	16ee-\JJ	.	16ee-\JJ	.	.	.
4c\	.	16cc\LL	.	16cc\LL	.	16cc\LL	.	4cc\)	.
.	.	16cc\	.	16cc\	.	16cc\	.	.	.
.	.	16cc\	.	16cc\	.	16cc\	.	.	.
.	.	16cc\JJ	.	16cc\JJ	.	16cc\JJ	.	.	.
4An\	.	16an\LL	.	16an/LL	.	16an/LL	.	4an\	-lo-
.	.	16a\	.	16a/	.	16a/	.	.	.
.	.	16a\	.	16a/	.	16a/	.	.	.
.	.	16a\JJ	.	16a/JJ	.	16a/JJ	.	.	.
!	!	!	!	!	!	!LO:LB:g=original	!	!	!
=30	=30	=30	=30	=30	=30	=30	=30	=30	=30
4B-\	.	4b-\	.	16b-\LL	.	16b-\LL	.	4b-\	-me-
.	.	.	.	16bb-\	.	16bb-\	.	.	.
.	.	.	.	16b-\	.	16b-\	.	.	.
.	.	.	.	16bb-\JJ	.	16bb-\JJ	.	.	.
*	*	*	*	*	*	*	*	*2\right	*
!	!	!	!	!	!	!	!	!LO:TX:a:t=problem:półnuty mają główkę w kształcie romba	!
4r	.	8r	.	16b-\LL	.	16b-\LL	.	2ddt\	-a
.	.	.	.	16bb-\	.	16bb-\	.	.	.
.	.	8f\L	.	16b-\	.	16b-\	.	.	.
.	.	.	.	16bb-\JJ	.	16bb-\JJ	.	.	.
!	!	!	!	!LO:LB:g=original	!	!	!	!	!
8B-\L	.	8f\	.	16b-\LL	.	16b-\LL	.	.	.
.	.	.	.	16bb-\	.	16bb-\	.	.	.
8A-X\J	.	8f\J	.	16b-\	.	16b-\	.	.	.
.	.	.	.	16bb-\JJ	.	16bb-\JJ	.	.	.
!LO:LB:g=original	!	!	!	!	!	!	!	!	!
=31	=31	=31	=31	=31	=31	=31	=31	=31	=31
4G\	.	4g\	.	16b-\LL	.	16b-\LL	.	4ee-\	ma-
.	.	.	.	16bb-\	.	16bb-\	.	.	.
.	.	.	.	16b-\	.	16b-\	.	.	.
.	.	.	.	16bb-\JJ	.	16bb-\JJ	.	.	.
8r	.	8r	.	16b-\LL	.	16b-\LL	.	2b-T\	-ter
.	.	.	.	16bb-\	.	16bb-\	.	.	.
!	!	!LO:LB:g=original	!	!	!	!	!	!	!
8G\L	.	8b-\L	.	16b-\	.	16b-\	.	.	.
.	.	.	.	16bb-\JJ	.	16bb-\JJ	.	.	.
8F\	.	8a-X\	.	16b-\LL	.	16b-\LL	.	.	.
.	.	.	.	16bb-\	.	16bb-\	.	.	.
8E-\J	.	8g\J	.	16b-\	.	16b-\	.	.	.
.	.	.	.	16bb-\JJ	.	16bb-\JJ	.	.	.
=32	=32	=32	=32	=32	=32	=32	=32	=32	=32
4D/	.	4f\	.	16b-\LL	.	16b-\LL	.	4ff\	ma-
.	.	.	.	16bb-\	.	16bb-\	.	.	.
.	.	.	.	16b-\	.	16b-\	.	.	.
.	.	.	.	16bb-\JJ	.	16bb-\JJ	.	.	.
8r	.	8r	.	16b-\LL	.	16b-\LL	.	2b-T\	.
.	.	.	.	16bb-\	.	16bb-\	.	.	.
8D/L	.	8f\L	.	16b-\	.	16b-\	.	.	.
.	.	.	.	16bb-\JJ	.	16bb-\JJ	.	.	.
8C/	.	8e-\	.	16b-\LL	.	16b-\LL	.	.	.
.	.	.	.	16bb-\	.	16bb-\	.	.	.
8BB-/J	.	8d\J	.	16b-\	.	16b-\	.	.	.
.	.	.	.	16bb-\JJ	.	16bb-\JJ	.	.	.
=33	=33	=33	=33	=33	=33	=33	=33	=33	=33
*	*	*	*	*	*	*	*	*Xtuplet	*
!	!	!	!	!	!	!	!	!LO:TX:a:t=problem:brak oznaczenia triol	!
4E-\	.	4e-`\	.	4b-`/	.	4gg`\	.	12gg\L	.
.	.	.	.	.	.	.	.	12ff\	.
.	.	.	.	.	.	.	.	12ee-\J	.
4D/	.	4d`\	.	4b-`/	.	4ff`\	.	12ff\L	.
.	.	.	.	.	.	.	.	12ee-\	.
.	.	.	.	.	.	.	.	12dd\J	.
4C/	6n	4c`/	.	4an`/	.	4ee-`\	.	12ee-\L	.
.	.	.	.	.	.	.	.	12dd\	.
.	.	.	.	.	.	.	.	12cc\J	.
!	!	!	!	!	!	!	!	!LO:LB:g=original	!
=34	=34	=34	=34	=34	=34	=34	=34	=34	=34
4BB-/	.	4B-`/	.	4b-`/	.	4dd`\	.	12dd\L	.
.	.	.	.	.	.	.	.	12cc\	.
.	.	.	.	.	.	.	.	12b-\J	.
4AA-/	.	4A-`/	.	4e-`/	.	4cc`\	.	12cc\L	.
.	.	.	.	.	.	.	.	12b-\	.
.	.	.	.	.	.	.	.	12a-\J	.
!	!	!	!	!	!	!LO:TX:a:t=problem:custos a-	!	!	!
4GG/	6	4G`/	.	4e-`/	.	4b-`\	.	12b-\L	.
.	.	.	.	.	.	.	.	12a-\	.
.	.	.	.	.	.	.	.	12g\J	.
!	!	!	!	!	!	!LO:LB:g=original	!	!	!
=35	=35	=35	=35	=35	=35	=35	=35	=35	=35
4FF/	-	4F/	.	16f/LL	.	16a-\LL	.	4a-\	-ter
.	.	.	.	16a-/	.	16ff\	.	.	.
.	.	.	.	16f/	.	16a-\	.	.	.
.	.	.	.	16a-/JJ	.	16ff\JJ	.	.	.
4r	.	4r	.	16f/LL	.	16a-\LL	.	8.r	.
.	.	.	.	16a-/	.	16ff\	.	.	.
.	.	.	.	16f/	.	16a-\	.	.	.
.	.	.	.	16a-/JJ	.	16ff\JJ	.	16ff\	Sa-
!	!	!	!	!LO:LB:g=original	!	!	!	!	!
4r	.	4r	.	16f/LL	.	16a-\LL	.	8.ff\	-lo-
.	.	.	.	16a-/	.	16ff\	.	.	.
.	.	.	.	16f/	.	16a-\	.	.	.
.	.	.	.	16a-/JJ	.	16ff\JJ	.	16a-\	-me-
=36	=36	=36	=36	=36	=36	=36	=36	=36	=36
4D\	.	4B-/	.	16f/LL	.	16a-\LL	.	4a-\	-a
.	.	.	.	16a-/	.	16ff\	.	.	.
.	.	.	.	16f/	.	16a-\	.	.	.
.	.	.	.	16a-/JJ	.	16ff\JJ	.	.	.
4r	.	4r	.	16f/LL	.	16a-\LL	.	8.r	.
.	.	.	.	16a-/	.	16ff\	.	.	.
.	.	.	.	16f/	.	16a-\	.	.	.
!	!	!	!	!	!	!	!	!	!
.	.	.	.	16a-/JJ	.	16ff\JJ	.	16ff\	Pa-
4r	.	4r	.	16f/LL	.	16a-\LL	.	8.ff\	-tro-
.	.	.	.	16a-/	.	16ff\	.	.	.
.	.	.	.	16f/	.	16a-\	.	.	.
.	.	.	.	16a-/JJ	.	16ff\JJ	.	16a-\	-na
=37	=37	=37	=37	=37	=37	=37	=37	=37	=37
4E-\	.	4e-\	.	16g\LL	.	16g\LL	.	(4g\	me-
.	.	.	.	16ee-\	.	16ee-\	.	.	.
.	.	.	.	16g\	.	16g\	.	.	.
.	.	.	.	16ee-\JJ	.	16ee-\JJ	.	.	.
4F\	7	4f\	.	16g\LL	.	16a-\LL	.	4a-\	.
.	.	.	.	16ee-\	.	16ee-\	.	.	.
.	.	.	.	16g\	.	16a-\	.	.	.
.	.	.	.	16ee-\JJ	.	16ee-\JJ	.	.	.
4G\	6	4g\	.	16g\LL	.	16b-\LL	.	4b-\)	-a
.	.	.	.	16ee-\	.	16ee-\	.	.	.
.	.	.	.	16g\	.	16b-\	.	.	.
.	.	.	.	16ee-\JJ	.	16ee-\JJ	.	.	.
=38	=38	=38	=38	=38	=38	=38	=38	=38	=38
4A-\	.	4a-\	.	8.cc\L	.	8.cc\L	.	8.cc\L	Suc-
.	.	.	.	16ff\Jk	.	16aa-\Jk	.	16ff\Jk	.
.	.	.	.	4qqee-/	.	4qqgg/	.	4qqee-/	.
4B-\	6 4	4b-\	.	2dd\	.	2ff\	.	2dd\	-cur-
!	!	!LO:TX:a:t=problem:nieczytelny zapis	!	!	!	!	!	!	!
4B-\	5 3	4r	.	.	.	.	.	.	.
=39	=39	=39	=39	=39	=39	=39	=39	=39	=39
!	!	!	!	!	!	!LO:TX:a:t=dis	!	!	!
4c-X\	.	4c-X/	.	4ee-\	.	4ee-\	.	4ee-\	.
!	!	!	!	!	!	!	!LO:DY:t=for	!	!
!	!	!	!	!	!	!	!LO:DY:a	!	!
2c-\	6-	2c-/	.	2e-/	.	2an/	f	2an\	-re
!	!	!	!	!	!	!LO:LB:g=original	!	!	!
!LO:LB:g=original	!	!	!	!	!	!	!	!	!
=40	=40	=40	=40	=40	=40	=40	=40	=40	=40
!	!	!	!	!	!	!	!LO:DY:a	!	!
2B-\	4	2.B-/	.	2e-/	.	4b-/	p	4b-\	suc-
!	!	!	!	!	!	!	!	!LO:LB:g=original	!
.	.	.	.	.	.	2fT/	.	2fT/	-cur-
4BB-/	3	.	.	4dt/	.	.	.	.	.
=41	=41	=41	=41	=41	=41	=41	=41	=41	=41
4E-\	.	4E-/	.	4ee-\	.	4ee-\	.	4e-/	-re
!	!	!	!	!LO:LB:g=original	!	!	!	!	!
4r	.	4r	.	8gg\L	.	8gg\L	.	4r	.
.	.	.	.	8ee-\	.	8ee-\	.	.	.
4r	.	4r	.	8ff\	.	8ff\	.	4r	.
.	.	.	.	8dd\J	.	8dd\J	.	.	.
!	!	!LO:LB:g=original	!	!	!	!	!	!	!
=42	=42	=42	=42	=42	=42	=42	=42	=42	=42
!	!	!	!	!	!	!	!	!LO:TX:a:t=4	!
!	!	!	!	!	!	!	!	!LO:N:vis=00	!
4e-\	.	4e-\	.	4ee-\	.	4ee-\	.	0.r	.
8g\L	.	8g\L	.	4b-\	.	4b-\	.	.	.
8e-\	.	8e-\	.	.	.	.	.	.	.
8f\	.	8f\	.	8r	.	8r	.	.	.
8d\J	.	8d\J	.	8aa-\	.	8aa-\	.	.	.
=43	=43	=43	=43	=43	=43	=43	=43	=43	=43
2e-\	4	4.e-\	.	(4aa-\	.	4aa-\	.	.	.
.	3	.	.	8gg\L	.	8gg\L	.	.	.
.	.	8a-\L	.	8ff\)	.	8ff\	.	.	.
4B-\	.	8g\	.	8ee-\	.	8ee-\	.	.	.
.	.	8f\J	.	8dd\J	.	8dd\J	.	.	.
=44	=44	=44	=44	=44	=44	=44	=44	=44	=44
4E-\	.	8g\L	.	8ee-\L	.	8ee-\L	.	.	.
.	.	8cc\	.	8cc\	.	8cc\	.	.	.
4r	.	8b-\	.	8b-\	.	8b-\	.	.	.
.	.	8a-\	.	8a-\	.	8a-\	.	.	.
4r	.	8g\	.	8g\	.	8g\	.	.	.
.	.	8f\J	.	8f\J	.	8f\J	.	.	.
=45	=45	=45	=45	=45	=45	=45	=45	=45	=45
8r	.	8e-\L	.	8e-/L	.	8e-/L	.	.	.
8A-\L	.	8a-\	.	8a-/	.	8a-/	.	.	.
8G\	.	8g\	.	8g/	.	8g/	.	.	.
8F\	.	8f\	.	8f/	.	8f/	.	.	.
8E-\	.	8e-\	.	8e-/	.	8e-/	.	.	.
8D\J	.	8d\J	.	8d/J	.	8d/J	.	.	.
=46	=46	=46	=46	=46	=46	=46	=46	=46	=46
4C/	.	4c/	.	4c/	.	4c/	.	4cc\	Be-
4r	.	4r	.	8ee-\L	.	8ee-\L	.	8ee-\	-a-
.	.	.	.	8cc\	.	8cc\	.	8cc\	-ta
4r	.	4r	.	8dd\	.	8dd\	.	8dd\	Sa-
.	.	.	.	8bn\J	.	8bn\J	.	8bn\	-lo-
=47	=47	=47	=47	=47	=47	=47	=47	=47	=47
4c\	.	4c\	.	4cc\	.	4cc\	.	4cc\	-me-
8e-\L	.	8e-\L	.	4g/	.	4g/	.	4g/	-a
8c\	.	8c\	.	.	.	.	.	.	.
8d\	.	8d\	.	8r	.	8r	.	8r	.
!	!	!	!	!	!	!LO:LB:g=original	!	!	!
8Bn\J	.	8Bn\J	.	8dd\	.	8ff\	.	8ff\	ad
=48	=48	=48	=48	=48	=48	=48	=48	=48	=48
2c\	.	2c/	.	(4dd\	.	(4ff\	.	(4ff\	es-
!	!	!	!	!LO:TX:a:t=problem:mixed beam	!	!	!	!	!
.	.	.	.	8cc\L)	.	8ee-\L)	.	8ee-\)	-to
.	.	.	.	8f/	.	8dd\	.	8dd\	Pa-
4G\	.	4G/	.	8e-/	.	8cc\	.	8b-\	-tro-
.	.	.	.	8d/J	.	8bn\J	.	8bn\	-na
!LO:LB:g=original	!	!	!	!LO:LB:g=original	!	!	!	!	!
=49	=49	=49	=49	=49	=49	=49	=49	=49	=49
8C\L	.	8C/	.	8e-/	.	8cc\	.	4cc\	me-
8A-\	.	8a-\L	.	8a-/L	.	8a-/L	.	.	.
8G\	.	8g\	.	8g/	.	8g/	.	4g/	-a
8F\	.	8f\	.	8f/	.	8f/	.	.	.
8E-\	.	8e-\	.	8e-/	.	8e-/	.	4r	.
8D\J	.	8d\J	.	8d/J	.	8d/J	.	.	.
!	!	!	!	!	!	!	!	!LO:LB:g=original	!
=50	=50	=50	=50	=50	=50	=50	=50	=50	=50
4C/	.	4c/	.	8c/	.	8c/	.	8r	.
.	.	.	.	8cc\L	.	8cc\L	.	8cc\	Be-
!	!	!	!	!	!LO:DY:a	!	!	!	!
4r	.	4r	.	8een\	p	8een\	.	8een\	-a-
.	.	.	.	8cc\	.	8cc\	.	8cc\	-ta
!	!	!LO:LB:g=original	!	!	!	!	!	!	!
4r	.	4r	.	8gg\	.	8gg\	.	8gg\	Sa-
.	.	.	.	8b-\J	.	8b-\J	.	8b-\	-lo-
=51	=51	=51	=51	=51	=51	=51	=51	=51	=51
8r	.	8r	.	8a-/	.	8a-/	.	8a-/L	-me-
8F\L	.	8f\L	.	8f/L	.	8f/L	.	8g/J	.
8A-\	.	8a-\	.	8a-/	.	8a-/	.	4f;</	-a
8F\	.	8f\	.	8f/	.	8f/	.	.	.
!	!	!	!	!	!	!	!	!LO:TX:a:t=Volti Subito	!
8c\	.	8cc\	.	8cc/	.	8cc/	.	4r	.
8E-\J	.	8e-\J	.	8e-/J	.	8e-/J	.	.	.
!	!	!	!	!	!	!	!	!LO:PB:g=original	!
=52	=52	=52	=52	=52	=52	=52	=52	=52	=52
4D\	.	4d\	.	8d/	.	8d/	.	8r	.
.	.	.	.	8b-\L	.	8b-\L	.	8b-\	es-
4r	.	4r	.	8dd\	.	8dd\	.	8dd\	-to
.	.	.	.	8b-\	.	8b-\	.	8b-\	Pa-
4r	.	4r	.	8ff\	.	8ff\	.	8ff\	-tro-
.	.	.	.	8a-\J	.	8a-\J	.	8a-\	-na
=53	=53	=53	=53	=53	=53	=53	=53	=53	=53
2E-\	.	2e-\	.	8g/L	.	8g\L	.	8g/L	me-
.	.	.	.	8e-/	.	8e-\	.	8f/J	.
.	.	.	.	8g/	.	8g\	.	4e-/	-a
.	.	.	.	8b-/	.	8b-\	.	.	.
4r	.	4r	.	8ee-/	.	8ee-\	.	8r	.
.	.	.	.	8ee-/J	.	8gg\J	.	8ee-\	in
!	!	!	!	!	!	!LO:LB:g=original	!	!	!
=54	=54	=54	=54	=54	=54	=54	=54	=54	=54
2F\	9 7	2f\	.	4ee-\	.	4gg\	.	(4ee-\	ca(e)-
.	8 6	.	.	8.dd\L	.	8.ff\L	.	8.dd\L)	.
.	.	.	.	16dd\K	.	16gg\K	.	16ee-\Jk	-li
4F#X\	7 5	4f#X\	.	8.cc\	.	8.ee-\	.	8.cc\	cu-
.	.	.	.	16dd\Jk	.	16ff\Jk	.	16dd\	-ri-
=55	=55	=55	=55	=55	=55	=55	=55	=55	=55
2G\	.	2g\	.	8bn\L	.	8dd\L	.	4bn\	-a
.	.	.	.	8g\	.	8g\	.	.	.
.	.	.	.	8b\	.	8bn\	.	4r	.
.	.	.	.	8dd\	.	8dd\	.	.	.
4r	.	4r	.	8gg\	.	8gg\	.	8r	.
.	.	.	.	8bn\J	.	8dd\J	.	8dd\	in
!	!	!	!	!LO:LB:g=original	!	!	!	!	!
=56	=56	=56	=56	=56	=56	=56	=56	=56	=56
2F#X\	.	2.f#X\	.	2.cc\	.	2.ee-\	.	4.ee-\	ca(e)-
.	.	.	.	.	.	.	.	8bn\	-li
4r	.	.	.	.	.	.	.	8.cc\	cu-
.	.	.	.	.	.	.	.	16ee-\	-ri-
=57	=57	=57	=57	=57	=57	=57	=57	=57	=57
!	!	!	!LO:DY:t=piano	!	!	!	!	!	!
!	!	!	!LO:DY:a	!	!	!	!	!	!
2G\	6 4	2g\	p	4cc\	.	4ee-\	.	4ee-\	-a
!	!	!	!	!	!	!	!	!LO:LB:g=original	!
.	5 n	.	.	4bn\	.	4dd\	.	4dd\	a
!	!	!LO:TX:a:t=Volti Subito	!	!	!	!LO:TX:a:t=Volti Subito.	!	!	!
4r;	.	4r;	.	4r;	.	4r;	.	4r;	.
!LO:LB:g=original	!	!LO:PB:g=original	!	!	!	!LO:PB:g=original	!	!	!
=58	=58	=58	=58	=58	=58	=58	=58	=58	=58
4G\	.	4g\	.	4g/	.	4g/	.	4g/	Be-
8An\L	.	8an\L	.	8an\L	.	8an\L	.	8an\	-a-
8Bn\	.	8bn\	.	8bn\	.	8bn\	.	8bn\	-ta
8c\	.	8cc\	.	8cc\	.	8cc\	.	8cc\	Sa-
8d\J	.	8dd\J	.	8dd\J	.	8dd\J	.	8dd\	lo-
=59	=59	=59	=59	=59	=59	=59	=59	=59	=59
4e-\	.	16ee-\LL	.	16ee-\LL	.	16ee-\LL	.	(4ee-\	-me-
.	.	16ee-\	.	16ee-\	.	16ee-\	.	.	.
.	.	16ee-\	.	16ee-\	.	16ee-\	.	.	.
.	.	16ee-\JJ	.	16ee-\JJ	.	16ee-\JJ	.	.	.
4d\	.	16dd\LL	.	16dd\LL	.	16dd\LL	.	4dd\)	.
.	.	16dd\	.	16dd\	.	16dd\	.	.	.
.	.	16dd\	.	16dd\	.	16dd\	.	.	.
.	.	16dd\JJ	.	16dd\JJ	.	16dd\JJ	.	.	.
4c\	.	16cc\LL	.	16cc\LL	.	16cc\LL	.	4cc\	-a
.	.	16cc\	.	16cc\	.	16cc\	.	.	.
.	.	16cc\	.	16cc\	.	16cc\	.	.	.
.	.	16cc\JJ	.	16cc\JJ	.	16cc\JJ	.	.	.
=60	=60	=60	=60	=60	=60	=60	=60	=60	=60
4d-X\	.	16dd-X\LL	.	16dd-X\LL	.	16dd-X\LL	.	(4dd-X\	Me-
.	.	16dd-\	.	16dd-\	.	16dd-\	.	.	.
.	.	16dd-\	.	16dd-\	.	16dd-\	.	.	.
.	.	16dd-\JJ	.	16dd-\JJ	.	16dd-\JJ	.	.	.
4c\	.	16cc\LL	.	16cc\LL	.	16cc\LL	.	4cc\)	.
.	.	16cc\	.	16cc\	.	16cc\	.	.	.
.	.	16cc\	.	16cc\	.	16cc\	.	.	.
.	.	16cc\JJ	.	16cc\JJ	.	16cc\JJ	.	.	.
4Bn\	.	16bn\LL	.	16bn/LL	.	16bn/LL	.	4bn\	-a
.	.	16b\	.	16b/	.	16b/	.	.	.
.	.	16b\	.	16b/	.	16b/	.	.	.
.	.	16b\JJ	.	16b/JJ	.	16b/JJ	.	.	.
=61	=61	=61	=61	=61	=61	=61	=61	=61	=61
4c\	.	16cc\LL	.	16cc\LL	.	16cc\LL	.	4cc\	Pa-
.	.	16cc\	.	16cc\	.	16cc\	.	.	.
.	.	16cc\	.	16cc\	.	16cc\	.	.	.
.	.	16cc\JJ	.	16cc\JJ	.	16cc\JJ	.	.	.
4A-X\	.	16a-X\LL	.	16a-X/LL	.	16a-X/LL	.	4a-X\	-tro-
.	.	16a-\	.	16a-/	.	16a-/	.	.	.
.	.	16a-\	.	16a-/	.	16a-/	.	.	.
.	.	16a-\JJ	.	16a-/JJ	.	16a-/JJ	.	.	.
4F#X\	.	16f#X\LL	.	16f#X/LL	.	16f#X/LL	.	4f#X/	-na
.	.	16f#\	.	16f#/	.	16f#/	.	.	.
.	.	16f#\	.	16f#/	.	16f#/	.	.	.
.	.	16f#\JJ	.	16f#/JJ	.	16f#/JJ	.	.	.
!	!	!	!	!LO:LB:g=original	!	!LO:LB:g=original	!	!	!
=62	=62	=62	=62	=62	=62	=62	=62	=62	=62
!	!	!	!	!LO:TX:a:t=problem:mixed beam	!	!LO:TX:a:t=problem:mixed beam	!	!	!
4G\	n	4g\	.	16g/LL	.	16g/LL	.	4g\	es-
.	.	.	.	16gg\	.	16gg\	.	.	.
.	.	.	.	16g/	.	16g/	.	.	.
.	.	.	.	16gg\JJ	.	16gg\JJ	.	.	.
!	!	!	!	!LO:TX:a:t=problem:mixed beam	!	!LO:TX:a:t=problem:mixed beam	!	!	!
8r	.	8r	.	16g/LL	.	16g/LL	.	2bnt\	-to
.	.	.	.	16gg\	.	16gg\	.	.	.
8G\L	.	8d\L	.	16g/	.	16g/	.	.	.
.	.	.	.	16gg\JJ	.	16gg\JJ	.	.	.
!	!	!	!	!LO:TX:a:t=problem:mixed beam	!	!LO:TX:a:t=problem:mixed beam	!	!	!
8Fn\	.	8d\	.	16g/LL	.	16g/LL	.	.	.
.	.	.	.	16gg\	.	16gg\	.	.	.
8G\J	.	8d\J	.	16g/	.	16g/	.	.	.
.	.	.	.	16gg\JJ	.	16gg\JJ	.	.	.
=63	=63	=63	=63	=63	=63	=63	=63	=63	=63
!	!	!	!	!LO:TX:a:t=problem:mixed beam	!	!LO:TX:a:t=problem:mixed beam	!	!	!
4E-\	6	4e-\	.	16g/LL	.	16g/LL	.	4cc\	ma-
.	.	.	.	16gg\	.	16gg\	.	.	.
.	.	.	.	16g/	.	16g/	.	.	.
.	.	.	.	16gg\JJ	.	16gg\JJ	.	.	.
!	!	!	!	!LO:TX:a:t=problem:mixed beam	!	!LO:TX:a:t=problem:mixed beam	!	!	!
8r	.	8r	.	16g/LL	.	16g/LL	.	2gt\	-ter
.	.	.	.	16gg\	.	16gg\	.	.	.
!	!	!LO:LB:g=original	!	!	!	!	!	!	!
8F\L	.	8g\L	.	16g/	.	16g/	.	.	.
.	.	.	.	16gg\JJ	.	16gg\JJ	.	.	.
!	!	!	!	!LO:TX:a:t=problem:mixed beam	!	!LO:TX:a:t=problem:mixed beam	!	!	!
8D\	.	8f\	.	16g/LL	.	16g/LL	.	.	.
.	.	.	.	16gg\	.	16gg\	.	.	.
8C\J	.	8e-\J	.	16g/	.	16g/	.	.	.
.	.	.	.	16gg\JJ	.	16gg\JJ	.	.	.
=64	=64	=64	=64	=64	=64	=64	=64	=64	=64
!	!	!	!	!LO:TX:a:t=problem:mixed beam	!	!LO:TX:a:t=problem:mixed beam	!	!	!
4BBn/	6	4d\	.	16g/LL	.	16g/LL	.	4dd\	pi-
.	.	.	.	16gg\	.	16gg\	.	.	.
.	.	.	.	16g/	.	16g/	.	.	.
.	.	.	.	16gg\JJ	.	16gg\JJ	.	.	.
!	!	!	!	!LO:TX:a:t=problem:mixed beam	!	!LO:TX:a:t=problem:mixed beam	!	!	!
8r	.	8r	.	16g/LL	.	16g/LL	.	2gt/	-a
.	.	.	.	16gg\	.	16gg\	.	.	.
8BB/L	.	8d/L	.	16g/	.	16g/	.	.	.
.	.	.	.	16gg\JJ	.	16gg\JJ	.	.	.
!	!	!	!	!LO:TX:a:t=problem:mixed beam	!	!LO:TX:a:t=problem:mixed beam	!	!	!
8AAn/	.	8c/	.	16g/LL	.	16g/LL	.	.	.
.	.	.	.	16gg\	.	16gg\	.	.	.
8GG/J	.	8Bn/J	.	16g/	.	16g/	.	.	.
.	.	.	.	16gg\JJ	.	16gg\JJ	.	.	.
!LO:PB:g=original	!	!	!	!	!	!	!	!LO:LB:g=original	!
=65	=65	=65	=65	=65	=65	=65	=65	=65	=65
4C/	.	4c`\	.	4cc`\	.	4ee-`\	.	12ee-\L	Ma-
.	.	.	.	.	.	.	.	12dd\	.
.	.	.	.	.	.	.	.	12cc\J	.
4D\	7	4d`\	.	4cc`\	.	4ff`\	.	12ff\L	.
.	.	.	.	.	.	.	.	12ee-\	.
.	.	.	.	.	.	.	.	12dd\J	.
4E-\	6	4e-`\	.	4cc`\	.	4gg`\	.	12gg\L	.
.	.	.	.	.	.	.	.	12ff\	.
.	.	.	.	.	.	.	.	12ee-\J	.
=66	=66	=66	=66	=66	=66	=66	=66	=66	=66
4F\	.	4f\	.	4cc\	.	4aa-\	.	12aa-\L	.
.	.	.	.	.	.	.	.	12gg\	.
.	.	.	.	.	.	.	.	12ff\J	.
4r	.	4r	.	2r	.	2r	.	12aa-\L	.
.	.	.	.	.	.	.	.	12gg\	.
.	.	.	.	.	.	.	.	12ff\J	.
4r	.	4r	.	.	.	.	.	12ee-\L	.
.	.	.	.	.	.	.	.	12dd\	.
.	.	.	.	.	.	.	.	12cc\J	.
=67	=67	=67	=67	=67	=67	=67	=67	=67	=67
4BB-/	.	4B-`\	.	4b-`\	.	4dd`\	.	12dd\L	.
.	.	.	.	.	.	.	.	12cc\	.
.	.	.	.	.	.	.	.	12b-\J	.
4C/	7	4c`\	.	4b-`\	.	4ee-`\	.	12ee-\L	.
.	.	.	.	.	.	.	.	12dd\	.
.	.	.	.	.	.	.	.	12cc\J	.
4D\	6	4d`\	.	4b-`\	.	4ff`\	.	12ff\L	.
.	.	.	.	.	.	.	.	12ee-\	.
.	.	.	.	.	.	.	.	12dd\J	.
!	!	!	!	!	!	!LO:LB:g=original	!	!	!
=68	=68	=68	=68	=68	=68	=68	=68	=68	=68
4E-\	.	4e-\	.	4b-`\	.	4gg\	.	12gg\L	.
.	.	.	.	.	.	.	.	12ff\	.
.	.	.	.	.	.	.	.	12ee-\J	.
4r	.	4r	.	2r	.	4r	.	12gg\L	.
.	.	.	.	.	.	.	.	12ff\	.
.	.	.	.	.	.	.	.	12ee-\J	.
4r	.	4r	.	.	.	4r	.	12dd\L	.
.	.	.	.	.	.	.	.	12cc\	.
.	.	.	.	.	.	.	.	12bn\J	.
!	!	!	!	!LO:LB:g=original	!	!	!	!	!
=69	=69	=69	=69	=69	=69	=69	=69	=69	=69
4A-\	.	4a-\	.	4cc\	.	4ee-\	.	4cc\	.
4r	.	4r	.	4r	.	4r	.	12ee-\L	.
.	.	.	.	.	.	.	.	12dd\	.
.	.	.	.	.	.	.	.	12cc\J	.
4r	.	4r	.	4r	.	4r	.	12ee-\L	.
.	.	.	.	.	.	.	.	12dd\	.
.	.	.	.	.	.	.	.	12cc\J	.
=70	=70	=70	=70	=70	=70	=70	=70	=70	=70
4G\	6 4	4g\	.	4cc\	.	4ee-\	.	4g/	.
!	!	!	!	!	!	!	!	!LO:LB:g=original	!
4r	.	4r	.	4r	.	4r	.	12ee-\L	.
.	.	.	.	.	.	.	.	12dd\	.
.	.	.	.	.	.	.	.	12cc\J	.
4r	.	4r	.	4r	.	4r	.	12ee-\L	.
.	.	.	.	.	.	.	.	12dd\	.
.	.	.	.	.	.	.	.	12cc\J	.
=71	=71	=71	=71	=71	=71	=71	=71	=71	=71
4F#X\	7 5	4f#X\	.	4cc\	.	4ee-\	.	4f#X/	.
4r	.	4r	.	4r	.	4r	.	12ee-\L	.
.	.	.	.	.	.	.	.	12dd\	.
.	.	.	.	.	.	.	.	12cc\J	.
4r	.	4r	.	4r	.	4r	.	12ee-\L	.
.	.	.	.	.	.	.	.	12dd\	.
.	.	.	.	.	.	.	.	12cc\J	.
!	!	!LO:LB:g=original	!	!	!	!	!	!	!
=72	=72	=72	=72	=72	=72	=72	=72	=72	=72
2G\	n7	2g\	.	(4bn\	.	(4dd\	.	(4bn\	.
!	!	!	!	!LO:TX:a:t=d	!	!	!	!	!
.	.	.	.	4dd\)	.	4ff\)	.	4ff\)	.
4c\	.	4g\	.	4cc\	.	4ee-\	.	4ee-\	-ter
!LO:LB:g=original	!	!	!	!	!	!	!	!	!
=73	=73	=73	=73	=73	=73	=73	=73	=73	=73
4F\	6	4f\	.	4a-/	.	4dd\	.	4dd\	pi-
.	.	.	.	4qqe-/	.	4qqcc/	.	4qqcc/	.
4G\	4	4g\	.	2d/	.	2bn\	.	2bn\	.
4GG/	n	4G/	.	.	.	.	.	.	.
=74	=74	=74	=74	=74	=74	=74	=74	=74	=74
!	!	!	!	!	!	!LO:TX:a:t=poco forte.	!	!	!
4C/	.	4c\	.	16cc\LL	.	16cc\LL	.	4cc\	-a
.	.	.	.	16ccc\	.	16ccc\	.	.	.
.	.	.	.	16cc\	.	16cc\	.	.	.
.	.	.	.	16ccc\JJ	.	16ccc\JJ	.	.	.
8r	.	8r	.	16cc\LL	.	16cc\LL	.	4r	.
.	.	.	.	16ccc\	.	16ccc\	.	.	.
8c\L	.	8en\L	.	16cc\	.	16cc\	.	.	.
.	.	.	.	16ccc\JJ	.	16ccc\JJ	.	.	.
8B-X\	.	8e\	.	16cc\LL	.	16cc\LL	.	4r	.
.	.	.	.	16ccc\	.	16ccc\	.	.	.
8c\J	.	8e\J	.	16cc\	.	16cc\	.	.	.
!	!	!	!	!	!	!LO:TX:a:t=problem:custos cc	!	!	!
.	.	.	.	16ccc\JJ	.	16ccc\JJ	.	.	.
!	!	!	!	!	!	!LO:LB:g=original	!	!	!
=75	=75	=75	=75	=75	=75	=75	=75	=75	=75
4A-\	.	4f\	.	16cc\LL	.	16cc\LL	.	8.ff\	ca-
.	.	.	.	16ccc\	.	16ccc\	.	.	.
.	.	.	.	16cc\	.	16cc\	.	.	.
.	.	.	.	16ccc\JJ	.	16ccc\JJ	.	16cc\	-tu-
8r	.	8r	.	16cc\LL	.	16cc\LL	.	4cc\	-i
.	.	.	.	16ccc\	.	16ccc\	.	.	.
8A-\L	.	8cc\L	.	16cc\	.	16cc\	.	.	.
.	.	.	.	16ccc\JJ	.	16ccc\JJ	.	.	.
8G\	.	8b-\	.	16cc\LL	.	16cc\LL	.	4r	.
.	.	.	.	16ccc\	.	16ccc\	.	.	.
8F\J	.	8a-X\J	.	16cc\	.	16cc\	.	.	.
.	.	.	.	16ccc\JJ	.	16ccc\JJ	.	.	.
=76	=76	=76	=76	=76	=76	=76	=76	=76	=76
4En\	6	4g\	.	16cc\LL	.	16cc\LL	.	8.gg\	do-
.	.	.	.	16ccc\	.	16ccc\	.	.	.
.	.	.	.	16cc\	.	16cc\	.	.	.
.	.	.	.	16ccc\JJ	.	16ccc\JJ	.	16cc\	-mu-
!	!	!	!	!LO:LB:g=original	!	!	!	!	!
8r	.	8r	.	16cc\LL	.	16cc\LL	.	4cc\	-i
.	.	.	.	16ccc\	.	16ccc\	.	.	.
8F\L	.	8g\L	.	16cc\	.	16cc\	.	.	.
.	.	.	.	16ccc\JJ	.	16ccc\JJ	.	.	.
8D\	.	8f\	.	16cc\LL	.	16cc\LL	.	4r	.
.	.	.	.	16ccc\	.	16ccc\	.	.	.
8C\J	.	8en\J	.	16cc\	.	16cc\	.	.	.
.	.	.	.	16ccc\JJ	.	16ccc\JJ	.	.	.
!	!	!	!	!	!	!	!	!LO:LB:g=original	!
=77	=77	=77	=77	=77	=77	=77	=77	=77	=77
4F\	.	4f\	.	4cc\	.	4aa-\	.	8r	.
.	.	.	.	.	.	.	.	8ff\	Be-
4r	.	4r	.	2r	.	2r	.	8ff\	-a-
.	.	.	.	.	.	.	.	8ee-\	-ta
4r	.	4r	.	.	.	.	.	8dd\	Sa-
.	.	.	.	.	.	.	.	8cc\	-lo-
=78	=78	=78	=78	=78	=78	=78	=78	=78	=78
4G\	.	4G/ 4d 4bn	.	4G/ 4d 4bn 4gg	.	4G/ 4d 4bn 4gg	.	(8bn\L	-me-
.	.	.	.	.	.	.	.	8an\J)	.
!	!	!	!	!	!	!	!	!LO:N:vis=4	!
4r	.	4r	.	2r	.	2r	.	4.g/	-a
4r	.	4r	.	.	.	.	.	.	.
.	.	.	.	.	.	.	.	8r	.
=79	=79	=79	=79	=79	=79	=79	=79	=79	=79
4G\	.	4g\	.	4g/	.	4g/	.	4g/	es-
8An\L	.	8an\L	.	8an/L	.	8an\L	.	8an\	-to
8Bn\	.	8bn\	.	8bn/	.	8bn\	.	8bn\	Pa-
8c\	.	8cc\	.	8cc/	.	8cc\	.	8cc\	-tro-
8d\J	.	8dd\J	.	8dd/J	.	8dd\J	.	8dd\	-na
!	!	!LO:LB:g=original	!	!	!	!	!	!	!
=80	=80	=80	=80	=80	=80	=80	=80	=80	=80
4e-\	.	16ee-\LL	.	16ee-\LL	.	16ee-X\LL	.	4ee-\	me-
.	.	16ee-\	.	16ee-\	.	16ee-\	.	.	.
.	.	16ee-\	.	16ee-\	.	16ee-\	.	.	.
.	.	16ee-\JJ	.	16ee-\JJ	.	16ee-\JJ	.	.	.
!	!	!	!	!	!	!LO:LB:g=original	!	!	!
2en\	.	16een\LL	.	16een\LL	.	16een\LL	.	2eent\	-a
.	.	16ee\	.	16ee\	.	16ee\	.	.	.
.	.	16ee\	.	16ee\	.	16ee\	.	.	.
.	.	16ee\JJ	.	16ee\JJ	.	16ee\JJ	.	.	.
.	.	16ee\LL	.	16ee\LL	.	16ee\LL	.	.	.
.	.	16ee\	.	16ee\	.	16ee\	.	.	.
.	.	16ee\	.	16ee\	.	16ee\	.	.	.
.	.	16ee\JJ	.	16ee\JJ	.	16ee\JJ	.	.	.
!LO:LB:g=original	!	!	!	!	!	!	!	!	!
=81	=81	=81	=81	=81	=81	=81	=81	=81	=81
4f\	.	16ff\LL	.	16ff\LL	.	16ff\LL	.	(4ff\	me-
.	.	16ff\	.	16ff\	.	16ff\	.	.	.
.	.	16ff\	.	16ff\	.	16ff\	.	.	.
.	.	16ff\JJ	.	16ff\JJ	.	16ff\JJ	.	.	.
4d-X\	.	16dd-X\LL	.	16dd-X\LL	.	16dd-X\LL	.	4dd-X\)	.
.	.	16dd-\	.	16dd-\	.	16dd-\	.	.	.
.	.	16dd-\	.	16dd-\	.	16dd-\	.	.	.
.	.	16dd-\JJ	.	16dd-\JJ	.	16dd-\JJ	.	.	.
4c\	.	16cc\LL	.	16cc\LL	.	16cc\LL	.	4cc\	-a
.	.	16cc\	.	16cc\	.	16cc\	.	.	.
.	.	16cc\	.	16cc\	.	16cc\	.	.	.
.	.	16cc\JJ	.	16cc\JJ	.	16cc\JJ	.	.	.
!	!	!	!	!LO:LB:g=original	!	!	!	!	!
=82	=82	=82	=82	=82	=82	=82	=82	=82	=82
4Bn\	.	16bn\LL	.	16bn\LL	.	16bn\LL	.	(4bn\	ma-
.	.	16b\	.	16b\	.	16b\	.	.	.
.	.	16b\	.	16b\	.	16b\	.	.	.
.	.	16b\JJ	.	16b\JJ	.	16b\JJ	.	.	.
4c\	.	16cc\LL	.	16cc\LL	.	16cc\LL	.	4cc\)	.
.	.	16cc\	.	16cc\	.	16cc\	.	.	.
.	.	16cc\	.	16cc\	.	16cc\	.	.	.
.	.	16cc\JJ	.	16cc\JJ	.	16cc\JJ	.	.	.
!	!	!	!	!	!	!	!	!LO:LB:g=original	!
4A-X\	.	16a-X\LL	.	16a-X/LL	.	16a-X/LL	.	4a-\	-ter
.	.	16a-\	.	16a-/	.	16a-/	.	.	.
.	.	16a-\	.	16a-/	.	16a-/	.	.	.
.	.	16a-\JJ	.	16a-/JJ	.	16a-/JJ	.	.	.
=83	=83	=83	=83	=83	=83	=83	=83	=83	=83
4F\	.	16f\LL	.	16f/LL	.	16f/LL	.	4f/	es-
.	.	16f\	.	16f/	.	16f/	.	.	.
.	.	16f\	.	16f/	.	16f/	.	.	.
.	.	16f\JJ	.	16f/JJ	.	16f/JJ	.	.	.
2G\	.	16g\LL	.	16g/LL	.	16g/LL	.	2g/	-to
.	.	16g\	.	16g/	.	16g/	.	.	.
.	.	16g\	.	16g/	.	16g/	.	.	.
.	.	16g\JJ	.	16g/JJ	.	16g/JJ	.	.	.
.	.	16g\LL	.	16g/LL	.	16g/LL	.	.	.
.	.	16g\	.	16g/	.	16g/	.	.	.
.	.	16g\	.	16g/	.	16g/	.	.	.
.	.	16g\JJ	.	16g/JJ	.	16g/JJ	.	.	.
!	!	!	!	!	!	!LO:LB:g=original	!	!	!
=84	=84	=84	=84	=84	=84	=84	=84	=84	=84
4A-\	.	4a-\	.	4a-/	.	4a-/	.	4a-\	pi-
2A-\	.	2a-\	.	2cc\	.	2ff#X\	.	2ff#X\	-a
!	!	!LO:LB:g=original	!	!	!	!	!	!	!
=85	=85	=85	=85	=85	=85	=85	=85	=85	=85
2G\	.	2g\	.	2cc\	.	4gg\	.	4gg\	Pa-
.	.	.	.	.	.	2ddt\	.	2ddt\	-tr-
4GG/	.	4G/	.	4bnt\	.	.	.	.	.
=86	=86	=86	=86	=86	=86	=86	=86	=86	=86
4AA-/	.	4A-/	.	4cc\	.	4cc\	.	4cc\	-na
!	!	!	!	!	!LO:DY:t=for	!	!	!	!
!	!	!	!	!	!LO:DY:a	!	!	!	!
2A-\	.	2a-\	.	2cc\	f	2ff#Xt\	.	2ff#X\	sis
=87	=87	=87	=87	=87	=87	=87	=87	=87	=87
2G\	.	2g\	.	2cc\	.	4gg\	.	4gg\	Pa-
.	.	.	.	.	.	2dd\	.	2ddt\	-tro-
4GG/	.	4G/	.	4bnt\	.	.	.	.	.
=88	=88	=88	=88	=88	=88	=88	=88	=88	=88
4C/	.	4c\	.	4cc\	.	16cc\LL	.	2cc\	-na
.	.	.	.	.	.	16ccc\	.	.	.
.	.	.	.	.	.	16cc\	.	.	.
.	.	.	.	.	.	16ccc\JJ	.	.	.
8r	.	8r	.	2eent\	.	16cc\LL	.	.	.
.	.	.	.	.	.	16ccc\	.	.	.
8c\L	.	8g\L	.	.	.	16cc\	.	.	.
.	.	.	.	.	.	16ccc\JJ	.	.	.
8B-X\	.	8g\	.	.	.	16cc\LL	.	4r	.
.	.	.	.	.	.	16ccc\	.	.	.
8c\J	.	8g\J	.	.	.	16cc\	.	.	.
.	.	.	.	.	.	16ccc\JJ	.	.	.
=89	=89	=89	=89	=89	=89	=89	=89	=89	=89
!	!	!	!	!	!	!	!	!LO:TX:a:t=6	!
!	!	!	!	!	!	!	!	!LO:N:vis=00	!
4A-\	6	4a-\	.	4ff\	.	16cc\LL	.	0.r	.
.	.	.	.	.	.	16ccc\	.	.	.
.	.	.	.	.	.	16cc\	.	.	.
.	.	.	.	.	.	16ccc\JJ	.	.	.
8r	.	8r	.	2ffT\	.	16cc\LL	.	.	.
.	.	.	.	.	.	16ccc\	.	.	.
8A-\L	.	8cc\L	.	.	.	16cc\	.	.	.
.	.	.	.	.	.	16ccc\JJ	.	.	.
8G\	.	8b-\	.	.	.	16cc\LL	.	.	.
.	.	.	.	.	.	16ccc\	.	.	.
8F\J	.	8a-\J	.	.	.	16cc\	.	.	.
.	.	.	.	.	.	16ccc\JJ	.	.	.
!LO:LB:g=original	!	!	!	!	!	!	!	!	!
=90	=90	=90	=90	=90	=90	=90	=90	=90	=90
4En\	6	4g\	.	4gg\	.	16cc\LL	.	.	.
.	.	.	.	.	.	16ccc\	.	.	.
.	.	.	.	.	.	16cc\	.	.	.
.	.	.	.	.	.	16ccc\JJ	.	.	.
!	!	!	!	!	!	!LO:LB:g=original	!	!	!
8r	.	8r	.	2ggt\	.	16cc\LL	.	.	.
.	.	.	.	.	.	16ccc\	.	.	.
8E/L	.	8g\L	.	.	.	16cc\	.	.	.
.	.	.	.	.	.	16ccc\JJ	.	.	.
8D/	.	8f\	.	.	.	16cc\LL	.	.	.
.	.	.	.	.	.	16ccc\	.	.	.
8C/J	.	8en\J	.	.	.	16cc\	.	.	.
.	.	.	.	.	.	16ccc\JJ	.	.	.
!	!	!	!	!LO:LB:g=original	!	!	!	!	!
=91	=91	=91	=91	=91	=91	=91	=91	=91	=91
4F\	.	4f\	.	16aa-\LL	.	16ccc\LL	.	.	.
.	.	.	.	16bb-\	.	16bb-\	.	.	.
.	.	.	.	16aa-\	.	16aa-\	.	.	.
.	.	.	.	16gg\JJ	.	16gg\JJ	.	.	.
4F\	.	4f\	.	16aa-\LL	.	16aa-\LL	.	.	.
.	.	.	.	16gg\	.	16gg\	.	.	.
.	.	.	.	16ff\	.	16ff\	.	.	.
.	.	.	.	16ee-\JJ	.	16ee-\JJ	.	.	.
4F\	6	4a-\	.	16ff\LL	.	16ff\LL	.	.	.
.	.	.	.	16ee-\	.	16ee-\	.	.	.
.	.	.	.	16dd\	.	16dd\	.	.	.
.	.	.	.	16cc\JJ	.	16cc\JJ	.	.	.
=92	=92	=92	=92	=92	=92	=92	=92	=92	=92
4G\	n	4d\	.	4bn\	.	4bn\	.	.	.
8.r	.	8.r	.	8.r	.	8.r	.	.	.
16Bn\	7 5	16d\	.	16ff\	.	16aa-\	.	.	.
4c\	.	4e-\	.	4ee-\	.	4gg\	.	.	.
=93	=93	=93	=93	=93	=93	=93	=93	=93	=93
!	!	!	!	!	!	!	!	!LO:N:vis=0	!
8.r	.	8.r	.	8.r	.	8.r	.	1.r	.
!	!	!	!	!LO:TX:a:t=d	!	!	!	!	!
16F\	6	16a-\	.	16dd\	.	16ff\	.	.	.
4G\	6 4	4g\	.	4cc\	.	4ee-\	.	.	.
4GG/	5 n	4f\	.	4bnt\	.	4ddt\	.	.	.
!	!	!LO:LB:g=original	!	!	!	!	!	!	!
=94	=94	=94	=94	=94	=94	=94	=94	=94	=94
2C;</	.	2e-;\	.	4cc\	.	4cc\	.	.	.
.	.	.	.	4c;/	.	4c;/	.	.	.
4r	.	4r	.	4r	.	4r	.	.	.
=95	=95	=95	=95	=95	=95	=95	=95	=95	=95
!	!	!	!	!	!LO:DY:t=piano	!	!	!	!
!	!	!	!	!	!LO:DY:a	!	!LO:DY:a	!	!
4E-\	.	4e-\	.	4ee-\	p	4ee-\	p	4ee-\	Be-
4r	.	4r	.	8gg\L	.	8gg\L	.	8gg\	-a-
.	.	.	.	8ee-\	.	8ee-\	.	8ee-\	-ta
4r	.	4r	.	8ff\	.	8ff\	.	8ff\	Sa-
.	.	.	.	8dd\J	.	8dd\J	.	8dd\	-lo-
!	!	!	!	!	!	!LO:LB:g=original	!	!LO:LB:g=original	!
=96	=96	=96	=96	=96	=96	=96	=96	=96	=96
4e-\	.	4e-\	.	4ee-\	.	4ee-\	.	4ee-\	-me-
8g\L	.	8g\L	.	4b-\	.	4b-\	.	4cc\	-a
8e-\	.	8e-\	.	.	.	.	.	.	.
8f\	.	8f\	.	4r	.	4r	.	4r	.
8d\J	.	8d\J	.	.	.	.	.	.	.
!LO:LB:g=original	!	!	!	!	!	!	!	!	!
=97	=97	=97	=97	=97	=97	=97	=97	=97	=97
4e-\	.	4e-\	.	4ee-\	.	4ee-\	.	4ee-\	es-
!	!	!	!	!LO:N:vis=16	!	!	!	!	!
8E-\L	.	8e-\L	.	8e-/L	.	8e-/L	.	8e-/	-to
!	!	!	!	!LO:N:vis=16	!	!	!	!	!
8F\	.	8f\	.	8f/	.	8f/	.	8f/	Pa-
!	!	!	!	!LO:N:vis=16	!	!	!	!	!
8G\	.	8g\	.	8g/	.	8g/	.	8g/	-tro-
!	!	!	!	!LO:N:vis=16	!	!	!	!	!
8A-\J	.	8a-\J	.	8a-/J	.	8a-/J	.	8a-/	-na
=98	=98	=98	=98	=98	=98	=98	=98	=98	=98
4B-\	.	4b-\	.	4b-\	.	4b-\	.	8b-\L	me-
.	.	.	.	.	.	.	.	8an\J	.
4BB-/	.	4B-/	.	4B-/	.	4B-/	.	4b-\	-a
4r	.	4r	.	4r	.	4r	.	8r	.
.	.	.	.	.	.	.	.	8b-\	Pa-
!	!	!	!	!LO:LB:g=original	!	!	!	!	!
=99	=99	=99	=99	=99	=99	=99	=99	=99	=99
!	!	!	!	!	!LO:DY:t=forte	!	!	!	!
!	!	!	!	!	!LO:DY:a	!	!	!	!
4C\	5 n	4c\	.	4c/ 4g 4b-	f	4c/ 4g 4een	.	4.een\	-tro-
4r	.	4r	.	2r	.	4r	.	.	.
.	.	.	.	.	.	.	.	8dd-X\	-na
4r	.	4r	.	.	.	4r	.	8cc\	es-
.	.	.	.	.	.	.	.	8b-\	-to
=100	=100	=100	=100	=100	=100	=100	=100	=100	=100
4F\	.	4c\	.	8r	.	8r	.	8a-/L	me-
.	.	.	.	8f/L	.	8f/L	.	8g/J	.
4r	.	4r	.	8a-/	.	8a-/	.	4f/	-a
.	.	.	.	8f/	.	8f/	.	.	.
4r	.	4r	.	8cc/	.	8cc/	.	4r	.
.	.	.	.	8f/J	.	8f/J	.	.	.
=101	=101	=101	=101	=101	=101	=101	=101	=101	=101
!	!	!	!	!	!	!LO:TX:a:t=t	!	!	!
4D\	7 #	4d\	.	4d/ 4cc 4ff#X	.	4d/ 4an 4ff#X	.	4ff#X\	Be-
4r	.	4r	.	2r	.	2r	.	4dd\	-a-
!	!	!	!	!	!	!	!	!LO:LB:g=original	!
4r	.	4r	.	.	.	.	.	12ee-\	-ta
.	.	.	.	.	.	.	.	12dd\	Sa-
.	.	.	.	.	.	.	.	12cc\	-lo-
=102	=102	=102	=102	=102	=102	=102	=102	=102	=102
4G\	.	4d\	.	8r	.	8r	.	(8b-\L	-me-
.	.	.	.	8g\L	.	8g\L	.	8an\J)	.
4r	.	4r	.	8b-\	.	8b-\	.	4g/	-a
.	.	.	.	8g\	.	8g\	.	.	.
4r	.	4r	.	8dd\	.	8dd\	.	4r	.
.	.	.	.	8g\J	.	8g\J	.	.	.
!	!	!LO:LB:g=original	!	!	!	!	!	!	!
=103	=103	=103	=103	=103	=103	=103	=103	=103	=103
4e-\	.	4ee-\	.	4ee-\	.	4ee-\	.	4ee-\	in
!LO:TX:a:t=problem:mixed beam	!	!	!	!LO:TX:a:t=problem:mixed beam	!	!LO:TX:a:t=problem:mixed beam	!	!	!
8E-/L	.	8e-\L	.	8e-/L	.	8e-/L	.	8e-/	ca(e)-
8e-\	.	8ee-\	.	8ee-\	.	8ee-\	.	8ee-\	-li
8d\	.	8dd\	.	8dd\	.	8dd\	.	8dd\	cu-
8c#X\J	.	8cc#X\J	.	8cc#X\J	.	8cc#X\J	.	8cc#X\	-ri-
!	!	!	!	!	!	!LO:LB:g=original	!	!	!
=104	=104	=104	=104	=104	=104	=104	=104	=104	=104
4d\	#	4dd\	.	16dd\LL	.	16dd\LL	.	2dd\	-a
.	.	.	.	16ddd\	.	16ddd\	.	.	.
.	.	.	.	16dd\	.	16dd\	.	.	.
.	.	.	.	16ddd\JJ	.	16ddd\JJ	.	.	.
!LO:LB:g=original	!	!	!	!	!	!	!	!	!
8.r	.	2f#X\	.	16dd\LL	.	16dd\LL	.	.	.
.	.	.	.	16ddd\	.	16ddd\	.	.	.
.	.	.	.	16dd\	.	16dd\	.	.	.
!LO:TX:a:t=problem:nieczytelny tekst	!	!	!	!	!	!	!	!	!
16ryy	.	.	.	16ddd\JJ	.	16ddd\JJ	.	.	.
4ryy	.	.	.	16dd\LL	.	16dd\LL	.	4r	.
.	.	.	.	16ddd\	.	16ddd\	.	.	.
.	.	.	.	16dd\	.	16dd\	.	.	.
.	.	.	.	16ddd\JJ	.	16ddd\JJ	.	.	.
=105	=105	=105	=105	=105	=105	=105	=105	=105	=105
4B-\	6	4g\	.	16dd\LL	.	16dd\LL	.	4gg\	Ma-
.	.	.	.	16ddd\	.	16ddd\	.	.	.
.	.	.	.	16dd\	.	16dd\	.	.	.
.	.	.	.	16ddd\JJ	.	16ddd\JJ	.	.	.
8r	.	2gt\	.	16dd\LL	.	16dd\LL	.	4dd\	-ter
.	.	.	.	16ddd\	.	16ddd\	.	.	.
8c\L	.	.	.	16dd\	.	16dd\	.	.	.
.	.	.	.	16ddd\JJ	.	16ddd\JJ	.	.	.
!	!	!	!	!LO:PB:g=original	!	!	!	!	!
8An\	.	.	.	16dd\LL	.	16dd\LL	.	4r	.
.	.	.	.	16ddd\	.	16ddd\	.	.	.
8G\J	.	.	.	16dd\	.	16dd\	.	.	.
.	.	.	.	16ddd\JJ	.	16ddd\JJ	.	.	.
=106	=106	=106	=106	=106	=106	=106	=106	=106	=106
4F#X\	.	4an\	.	16dd\LL	.	16dd\LL	.	4dd\	Pi-
.	.	.	.	16ddd\	.	16ddd\	.	.	.
.	.	.	.	16dd\	.	16dd\	.	.	.
.	.	.	.	16ddd\JJ	.	16ddd\JJ	.	.	.
8r	.	2at\	.	16dd\LL	.	16dd\LL	.	4an\	-a
.	.	.	.	16ddd\	.	16ddd\	.	.	.
8F#X\L	.	.	.	16dd\	.	16dd\	.	.	.
.	.	.	.	16ddd\JJ	.	16ddd\JJ	.	.	.
8En\	.	.	.	16dd\LL	.	16dd\LL	.	8r	.
.	.	.	.	16ddd\	.	16ddd\	.	.	.
8D\J	.	.	.	16dd\	.	16dd\	.	8dd\	be-
.	.	.	.	16ddd\JJ	.	16ddd\JJ	.	.	.
!	!	!	!	!	!	!	!	!LO:LB:g=original	!
=107	=107	=107	=107	=107	=107	=107	=107	=107	=107
2G\	6- 5	2b-\	.	16ee-\LL	.	16ee-\LL	.	4.ee-\	-a-
.	.	.	.	16ddd\	.	16ddd\	.	.	.
.	.	.	.	16ee-\	.	16ee-\	.	.	.
.	.	.	.	16ddd\JJ	.	16ddd\JJ	.	.	.
.	.	.	.	16ee-\LL	.	16ee-\LL	.	.	.
.	.	.	.	16ddd\	.	16ddd\	.	.	.
.	.	.	.	16ee-\	.	16ee-\	.	8ee-\	-ta
.	.	.	.	16ddd\JJ	.	16ddd\JJ	.	.	.
4An\	5-	4cc\	.	16ee-\LL	.	16ee-\LL	.	8ee-\	Sa-
.	.	.	.	16ccc\	.	16ccc\	.	.	.
.	.	.	.	16ee-\	.	16ee-\	.	8ee-\	-lo-
.	.	.	.	16ccc\JJ	.	16ccc\JJ	.	.	.
!	!	!	!	!	!	!LO:LB:g=original	!	!	!
=108	=108	=108	=108	=108	=108	=108	=108	=108	=108
2F#X\	6 5	2an\	.	16dd\LL	.	16dd\LL	.	(8ee-\L	-me-
.	.	.	.	16ccc\	.	16ccc\	.	.	.
.	.	.	.	16dd\	.	16dd\	.	8dd\J)	.
.	.	.	.	16ccc\JJ	.	16ccc\JJ	.	.	.
.	.	.	.	16dd\LL	.	16dd\LL	.	4dd\	-a
.	.	.	.	16ccc\	.	16ccc\	.	.	.
.	.	.	.	16dd\	.	16dd\	.	.	.
.	.	.	.	16ccc\JJ	.	16ccc\JJ	.	.	.
4G\	.	4b-\	.	16dd\LL	.	16dd\LL	.	4r	.
.	.	.	.	16bb-\	.	16bb-\	.	.	.
.	.	.	.	16dd\	.	16dd\	.	.	.
.	.	.	.	16bb-\JJ	.	16bb-\JJ	.	.	.
!	!	!	!	!LO:LB:g=original	!	!	!	!	!
=109	=109	=109	=109	=109	=109	=109	=109	=109	=109
2En\	6 5	2g\	.	16cc\LL	.	16cc\LL	.	4gg\	es-
.	.	.	.	16bb-\	.	16bb-\	.	.	.
.	.	.	.	16cc\	.	16cc\	.	.	.
.	.	.	.	16bb-\JJ	.	16bb-\JJ	.	.	.
.	.	.	.	16cc\LL	.	16cc\LL	.	8cc\	-to
.	.	.	.	16bb-\	.	16bb-\	.	.	.
.	.	.	.	16cc\	.	16cc\	.	8cc\	Pa-
.	.	.	.	16bb-\JJ	.	16bb-\JJ	.	.	.
4F#X\	.	4an\	.	16cc\LL	.	16cc\LL	.	8cc\	-tro-
.	.	.	.	16aan\	.	16aan\	.	.	.
.	.	.	.	16cc\	.	16cc\	.	8cc\	-na
.	.	.	.	16aa\JJ	.	16aa\JJ	.	.	.
=110	=110	=110	=110	=110	=110	=110	=110	=110	=110
4G\	9	4d\	.	16b-\LL	.	16b-\LL	.	8cc\L	me-
!	!	!	!	!LO:TX:a:t=sic!:s=16aan	!	!LO:TX:a:t=sic!:s=16aan	!	!	!
.	.	.	.	16aa-\	.	16aa-\	.	.	.
.	.	.	.	16b-\	.	16b-\	.	8b-\J	.
.	.	.	.	16aa-\JJ	.	16aa-\JJ	.	.	.
8r	.	8r	.	16b-\LL	.	16b-\LL	.	4b-\	-a
.	.	.	.	16aa-\	.	16aa-\	.	.	.
8Fn\L	.	8d\L	.	16b-\	.	16b-\	.	.	.
.	.	.	.	16aa-\JJ	.	16aa-\JJ	.	.	.
8E-X\	3	8g\	.	16b-\LL	.	16b-\LL	.	[4gg\	Be-
.	.	.	.	16gg\	.	16gg\	.	.	.
8D\J	.	8f\J	.	16b-\	.	16b-\	.	.	.
.	.	.	.	16gg\JJ	.	16gg\JJ	.	.	.
!LO:LB:g=original	!	!	!	!	!	!	!	!	!
=111	=111	=111	=111	=111	=111	=111	=111	=111	=111
4C/	6n 5	8e-\L	.	8an\L	.	8an\L	.	8gg\L]	.
.	.	8cc\	.	8ee-\	.	8ee-\	.	8ee-\J	-a-
4r	.	8b-\	.	8dd\	.	8dd\	.	8dd\	-ta
.	.	8an\	.	8cc\	.	8cc\	.	8cc\	Sa-
4D\	#	8g\	.	8b-\	.	8b-\	.	8b-\	-lo-
.	.	8g#X\J	.	8a\J	.	8a\J	.	8an\	-me-
!	!	!LO:LB:g=original	!	!	!	!	!	!LO:LB:g=original	!
=112	=112	=112	=112	=112	=112	=112	=112	=112	=112
4E-\	.	4g\	.	4g/	.	4g/	.	4g/	-a
2E-\	6|	2e-\	.	2g/	.	2cc#X\	.	2cc#X\	Te
!	!	!	!	!	!	!LO:LB:g=original	!	!	!
=113	=113	=113	=113	=113	=113	=113	=113	=113	=113
2D\	4	2d\	.	2g/	.	4dd\	.	4dd\	a-
.	.	.	.	.	.	2ant/	.	2ant\	-do-
4DD/	#	4D/	.	4f#X/	.	.	.	.	.
!	!	!	!	!LO:LB:g=original	!	!	!	!	!
=114	=114	=114	=114	=114	=114	=114	=114	=114	=114
4EE-/	.	4E-/	.	4g/	.	4g/	.	4g/	-ro,
2E-\	6|	2e-\	.	2g/	.	2cc#X\	.	2cc#X\	te
=115	=115	=115	=115	=115	=115	=115	=115	=115	=115
2D\	4	2d\	.	2g/	.	4dd\	.	4dd\	ho-
.	.	.	.	.	.	2ant/	.	2ant\	-no-
4DD/	#	4D/	.	4f#X/	.	.	.	.	.
=116	=116	=116	=116	=116	=116	=116	=116	=116	=116
!LO:TX:a:t=problem:mixed beam	!	!LO:TX:a:t=problem:mixed beam	!	!	!	!	!	!	!
8GG/L	.	8G/L	.	2g/	.	2g/	.	2g/	-ro
8G\	.	8g\	.	.	.	.	.	.	.
8G\	.	8g\	.	.	.	.	.	.	.
8F\	.	8f\	.	.	.	.	.	.	.
8E-\	.	8e-\	.	4r	.	4r	.	4r	.
8D\J	.	8d\J	.	.	.	.	.	.	.
=117	=117	=117	=117	=117	=117	=117	=117	=117	=117
!	!	!	!	!	!	!	!	!LO:TX:a:t=tut	!
!	!	!	!	!	!	!	!	!LO:N:vis=00	!
!	!	!	!	!	!	!	!	!LO:TX:a:t=11	!
!	!	!	!	!	!	!	!	!LO:TX:a:t=problem:10 a nie 11 pustych taktów	!
4C/	.	4c\	.	4cc\	.	4cc\	.	0.r	.
4r	.	4r	.	8ee-\L	.	8ee-\L	.	.	.
.	.	.	.	8cc\	.	8cc\	.	.	.
4r	.	4r	.	8dd\	.	8dd\	.	.	.
.	.	.	.	8bn\J	.	8bn\J	.	.	.
=118	=118	=118	=118	=118	=118	=118	=118	=118	=118
4c\	.	4c\	.	4cc\	.	4cc\	.	.	.
8e-\L	.	8e-\L	.	4g/	.	4g/	.	.	.
8c\	.	8c\	.	.	.	.	.	.	.
8d\	.	8d\	.	8r	.	8r	.	.	.
8Bn\J	.	8Bn\J	.	8ff\	.	8ff\	.	.	.
=119	=119	=119	=119	=119	=119	=119	=119	=119	=119
2c\	.	4.c\	.	4ff\	.	4ff\	.	.	.
.	.	.	.	8ee-\L	.	8ee-\L	.	.	.
.	.	8f\L	.	8dd\	.	8dd\	.	.	.
4G\	.	8e-\	.	8cc\	.	8cc\	.	.	.
.	.	8d\J	.	8bnt\J	.	8bnt\J	.	.	.
!LO:LB:g=original	!	!	!	!	!	!	!	!	!
=120	=120	=120	=120	=120	=120	=120	=120	=120	=120
4C/	.	4c/	.	4cc\	.	16cc\LL	.	.	.
.	.	.	.	.	.	16ccc\	.	.	.
.	.	.	.	.	.	16cc\	.	.	.
.	.	.	.	.	.	16ccc\JJ	.	.	.
8r	.	8r	.	2eent\	.	16cc\LL	.	.	.
.	.	.	.	.	.	16ccc\	.	.	.
8c\L	n	8g\L	.	.	.	16cc\	.	.	.
.	.	.	.	.	.	16ccc\JJ	.	.	.
!	!	!	!	!	!	!LO:LB:g=original	!	!	!
8B-\	.	8g\	.	.	.	16cc\LL	.	.	.
.	.	.	.	.	.	16ccc\	.	.	.
8c\J	.	8g\J	.	.	.	16cc\	.	.	.
.	.	.	.	.	.	16ccc\JJ	.	.	.
!	!	!LO:LB:g=original	!	!	!	!	!	!	!
=121	=121	=121	=121	=121	=121	=121	=121	=121	=121
!	!	!	!	!	!	!	!	!LO:N:vis=00	!
4A-\	6	4a-\	.	4ff\	.	16cc\LL	.	0.r	.
.	.	.	.	.	.	16ccc\	.	.	.
.	.	.	.	.	.	16cc\	.	.	.
.	.	.	.	.	.	16ccc\JJ	.	.	.
8r	.	8r	.	2ffT\	.	16cc\LL	.	.	.
.	.	.	.	.	.	16ccc\	.	.	.
8A-\L	.	8cc\L	.	.	.	16cc\	.	.	.
.	.	.	.	.	.	16ccc\JJ	.	.	.
8G\	.	8b-\	.	.	.	16cc\LL	.	.	.
.	.	.	.	.	.	16ccc\	.	.	.
8F\J	.	8a-\J	.	.	.	16cc\	.	.	.
.	.	.	.	.	.	16ccc\JJ	.	.	.
!	!	!	!	!LO:LB:g=original	!	!	!	!	!
=122	=122	=122	=122	=122	=122	=122	=122	=122	=122
4En\	6	4g\	.	4gg\	.	16cc\LL	.	.	.
.	.	.	.	.	.	16ccc\	.	.	.
.	.	.	.	.	.	16cc\	.	.	.
.	.	.	.	.	.	16ccc\JJ	.	.	.
8r	.	8r	.	2ggt\	.	16cc\LL	.	.	.
.	.	.	.	.	.	16ccc\	.	.	.
8E\L	.	8g\L	.	.	.	16cc\	.	.	.
.	.	.	.	.	.	16ccc\JJ	.	.	.
8D\	.	8f\	.	.	.	16cc\LL	.	.	.
.	.	.	.	.	.	16ccc\	.	.	.
8C\J	.	8en\J	.	.	.	16cc\	.	.	.
.	.	.	.	.	.	16ccc\JJ	.	.	.
=123	=123	=123	=123	=123	=123	=123	=123	=123	=123
4F\	.	4f\	.	16aa-\LL	.	16ccc\LL	.	.	.
.	.	.	.	16bb-\	.	16bb-\	.	.	.
.	.	.	.	16aa-\	.	16aa-\	.	.	.
.	.	.	.	16gg\JJ	.	16gg\JJ	.	.	.
4F\	.	4f\	.	16aa-\LL	.	16aa-\LL	.	.	.
.	.	.	.	16gg\	.	16gg\	.	.	.
.	.	.	.	16ff\	.	16ff\	.	.	.
.	.	.	.	16ee-\JJ	.	16ee-\JJ	.	.	.
4F\	6	4a-\	.	16ff\LL	.	16ff\LL	.	.	.
.	.	.	.	16ee-\	.	16ee-\	.	.	.
.	.	.	.	16dd\	.	16dd\	.	.	.
.	.	.	.	16cc\JJ	.	16cc\JJ	.	.	.
=124	=124	=124	=124	=124	=124	=124	=124	=124	=124
4G\	n	4d\	.	4bn/	.	4bn\	.	.	.
8.r	.	8.r	.	8.r	.	8.r	.	.	.
!	!	!	!	!	!	!LO:LB:g=original	!	!	!
16Bn\	7 5	16d\	.	16ff\	.	16aa-\	.	.	.
4c\	.	4e-\	.	4ee-\	.	4gg\	.	.	.
=125	=125	=125	=125	=125	=125	=125	=125	=125	=125
!	!	!	!	!	!	!	!	!LO:N:vis=0	!
8.r	.	8.r	.	8.r	.	8.r	.	1.r	.
16F\	6	16a-\	.	16dd\	.	16ff\	.	.	.
4G\	6 4	4g\	.	4cc\	.	4ee-\	.	.	.
4GG/	5 n	4f\	.	4bnt\	.	4ddt\	.	.	.
=126	=126	=126	=126	=126	=126	=126	=126	=126	=126
!	!	!	!	!	!	!	!	!LO:TX:a:t=Da Capo al Segno [segno]	!
8C\L	.	8e-\L	.	8cc/L	.	8cc/L	.	.	.
8A-\	.	8a-\	.	8a-/	.	8a-/	.	.	.
8G\	.	8g\	.	8g/	.	8g/	.	.	.
8F\	.	8f\	.	8f/	.	8f/	.	.	.
8E-\	.	8e-\	.	8e-/	.	8e-/	.	.	.
!LO:TX:a:t=Da Capo al Segno [segno]	!	!LO:TX:a:t=Da Capo al Segno [segno]	!	!LO:TX:a:t=Da Capo al Segno [segno]	!	!LO:TX:a:t=Da Capo al Segno [segno]	!	!	!
!LO:TX:a:t=problem:custos c	!	!LO:TX:a:t=problem:custos c	!	!	!	!	!	!	!
8D\J	.	8d\J	.	8d/J	.	8d/J	.	.	.
=	=	=	=	=	=	=	=	=	=
*-	*-	*-	*-	*-	*-	*-	*-	*-	*-
!!!system-decoration: [(g1)][(g2)]
!!!RDF**kern: >= above
!!!RDF**kern: <= below
!!!ENC:Anna Matuszewska
!!!END:2020-08-16
